X: 1191
T: WILLIAM TELL
C: Gioachino Rossini
B: Oliver Ditson "The Boston Collection of Instrumental Music" 1910 p.119 #1
F: http://conquest.imslp.info/files/imglnks/usimg/8/8f/IMSLP175643-PMLP309456-bostoncollection00bost_bw.pdf
%: 2012 John Chambers <jc:trillian.mit.edu>
N: The composer isn't attributed.
M: 2/4
L: 1/16
K: D
AA |\
A2AA A2A2 | d2e2f2 AA | A2AA d2f2 | e2c2 A4 |\
A2AA A2A2 | d2e2f2 AA | A4 agec | d2f2d2 H|]
ff |\
f2ff f2ff | f2b2 f2b2 | f2b2 f2e2 | d2c2B2 ff|\
f2ff f2ff | f2b2 f2b2 | f2b2 f2^g2 | a2"^da Capo"e2a2 ]
A2 |\
e2 "^>"e4 f2 | g2 "^>"e4 g2 | f2 "^>"d4 f2 | e2 "^>"a4 A2 |\
e2 "^>"e4 f2 | g2 "^>"e4 f2 | f2 "^>"d4 f2 | "^da Capo"e2 a4 |]
%%begintext align
Two ladies forward and back.
Cross over, balance each other's partners.
Two gentlemen the same.
Forward and back four, half right and left to place.
%%endtext

%%sep 1 1 500
%%sep 1 1 500
